X:1
T: Soulwax "Ballad To Forget"
M: 3/4
L: 1/8
K: C
| "C" C3 [eg] c2 | "Em" E3 [gb] e2 | "E" E3 e [^gb] e | "F" F3 f [ac] f |
| "C" C3 [eg] c2 | "Em" E3 [gb] e2 | "E" E3 [^gb] e2 | "F" F3 [ac] f2 |
| "C" C3 [eg] c2 | "Em" E3 [gb] e2 | "E" E3 [^gb] e2 | "^A" Z |
